X:1
T:Title
%%score { 1 | 2 }
L:1/8
M:6/8
K:F
V:1 treble nm="Grand Piano"
V:2 bass 
V:1
 z3 z2[Q:1/4=78] C | A>GA BAF | [EA][EG][EA] FCA | [Ac]>[_A=B][=Ac] [_Bd][Ac][GB] | A3- A z C | %5
 A>GA BAF |[M:5/8] [EA][EG][EA] FC |[M:1/8] A |[M:3/4] [Ac]>[Bd] [Ac][GB] [FA][EG] | F4 z A | %10
 [FA]>[EG] [EG][EG] [EA][EB] | [Ec][EG] [EB][GB] AA | A>G G=B Bd | [Ec]4 z [GB] | A>G AB AF | %15
 [EA][DG] [EA]F/C/- CA | [Ac]>[Bd] [Ac][GB] [FA][EG] |[M:5/8] F- F3 z |] %18
V:2
 z3 z2 [F,A,] | [F,CF]>[F,B,F][F,CF] [F,DF][F,CF][F,A,] | [C,C][C,B,][C,C] [F,A,C][F,A,][F,CF] | %3
 [F,C]>[F,D][F,C] [F,F][F,F][F,C] | [F,CF]3- [F,CF] z [F,A,] | %5
 [F,CF]>[F,B,F][F,CF] [F,DF][F,CF][F,A,] |[M:5/8] [C,C][C,B,][C,C] [F,A,C][F,A,] |[M:1/8] [F,CF] | %8
[M:3/4] [C,C]>[C,C] [C,C][C,C] [C,C][C,B,] | [F,A,]4 z [F,CF] | %10
 [C,C]>[C,C] [C,C][C,B,] [C,A,][C,G,] | [C,G,][C,C] [C,C][F,C][K:treble] [F,CF][F,CF] | %12
 [G,=B,F]>[G,B,F] [G,B,F][G,DF] [G,DF][G,B,F] | [C,C]4 z [E,C] | %14
 [F,CF]>[F,B,F] [F,CF][F,DF] [F,CF][F,A,] | [C,C][D,=B,] [C,_B,][F,A,C]/[F,A,]/- [F,A,][F,CF] | %16
 [C,C]>[C,C] [C,C][C,C] [C,C][C,B,] |[M:5/8] [F,A,]- [F,A,]3 z |] %18

